app/client/src/assets/icons/blueprintjs/20px/id-number.svg

<svg xmlns="http://www.w3.org/2000/svg" xml:space="preserve" viewBox="0 0 20 20"><path d="M2 5v10h16V5H2zm0-2h16c1.1 0 2 .9 2 2v10c0 1.1-.9 2-2 2H2c-1.1 0-2-.9-2-2V5c0-1.1.9-2 2-2z"/><path d="M8.88 12.38c-.17-.39-1.01-.66-1.56-.9-.56-.24-.48-.39-.5-.6v-.09c.19-.17.35-.4.45-.67 0 0 0-.02.01-.02l.06-.18c.13-.03.2-.17.23-.29.03-.05.09-.18.08-.33-.04-.18-.11-.27-.2-.3v-.03c0-.24-.02-.58-.06-.81-.01-.06-.02-.12-.04-.19-.08-.27-.25-.52-.48-.7C6.63 7.09 6.3 7 6 7s-.63.09-.87.27c-.23.17-.4.42-.48.7-.02.06-.03.13-.04.19-.04.22-.06.57-.06.81V9c-.09.03-.17.12-.19.31-.01.14.05.27.08.32.03.14.1.27.23.3.02.06.03.12.06.18v.01c.11.27.27.51.47.68v.08c-.02.2.04.35-.51.6-.56.24-1.39.51-1.56.9-.19.39-.12.62-.12.62h5.98c-.01 0 .06-.23-.11-.62zM12 7h4c.55 0 1 .45 1 1s-.45 1-1 1h-4c-.55 0-1-.45-1-1s.45-1 1-1zM12 11h4c.55 0 1 .45 1 1s-.45 1-1 1h-4c-.55 0-1-.45-1-1s.45-1 1-1z"/></svg>

<?xml version="1.0" encoding="utf-8"?>
<!-- Generator: Adobe Illustrator 18.0.0, SVG Export Plug-In . SVG Version: 6.00 Build 0)  -->
<svg version="1.1" id="Layer_1" xmlns="http://www.w3.org/2000/svg" xmlns:xlink="http://www.w3.org/1999/xlink" x="0px" y="0px"
	 viewBox="0 0 20 20" enable-background="new 0 0 20 20" xml:space="preserve">
<g id="id_number_1_">
	<g id="pt-icon-id-number_1_">
		<path id="Rectangle-4_1_" d="M2,5v10h16V5H2z M2,3h16c1.1,0,2,0.9,2,2v10c0,1.1-0.9,2-2,2H2c-1.1,0-2-0.9-2-2V5C0,3.9,0.9,3,2,3z"
			/>
		<path id="Shape_7_" d="M8.88,12.38c-0.17-0.39-1.01-0.66-1.56-0.9c-0.56-0.24-0.48-0.39-0.5-0.6c0-0.03,0-0.06,0-0.09
			c0.19-0.17,0.35-0.4,0.45-0.67c0,0,0-0.02,0.01-0.02c0.02-0.06,0.04-0.12,0.06-0.18c0.13-0.03,0.2-0.17,0.23-0.29
			c0.03-0.05,0.09-0.18,0.08-0.33C7.61,9.12,7.54,9.03,7.45,9V8.97c0-0.24-0.02-0.58-0.06-0.81C7.38,8.1,7.37,8.04,7.35,7.97
			C7.27,7.7,7.1,7.45,6.87,7.27C6.63,7.09,6.3,7,6,7S5.37,7.09,5.13,7.27c-0.23,0.17-0.4,0.42-0.48,0.7
			C4.63,8.03,4.62,8.1,4.61,8.16C4.57,8.38,4.55,8.73,4.55,8.97V9C4.46,9.03,4.38,9.12,4.36,9.31C4.35,9.45,4.41,9.58,4.44,9.63
			C4.47,9.77,4.54,9.9,4.67,9.93c0.02,0.06,0.03,0.12,0.06,0.18c0,0,0,0.01,0,0.01l0,0C4.84,10.39,5,10.63,5.2,10.8
			c0,0.03,0,0.05,0,0.08c-0.02,0.2,0.04,0.35-0.51,0.6c-0.56,0.24-1.39,0.51-1.56,0.9C2.94,12.77,3.01,13,3.01,13h5.98
			C8.98,13,9.05,12.77,8.88,12.38L8.88,12.38z"/>
		<path id="Rectangle-3-Copy_3_" d="M12,7h4c0.55,0,1,0.45,1,1l0,0c0,0.55-0.45,1-1,1h-4c-0.55,0-1-0.45-1-1l0,0
			C11,7.45,11.45,7,12,7z"/>
		<path id="Rectangle-3-Copy_2_" d="M12,11h4c0.55,0,1,0.45,1,1l0,0c0,0.55-0.45,1-1,1h-4c-0.55,0-1-0.45-1-1l0,0
			C11,11.45,11.45,11,12,11z"/>
	</g>
</g>
</svg>
